svg/fluentui-system-icons/ic_fluent_people_team_delete_32_regular.svg

<svg width="32" height="32" viewBox="0 0 32 32" fill="none" xmlns="http://www.w3.org/2000/svg">
<path d="M16 3C13.7909 3 12 4.79086 12 7C12 9.20914 13.7909 11 16 11C18.2091 11 20 9.20914 20 7C20 4.79086 18.2091 3 16 3ZM14 7C14 5.89543 14.8954 5 16 5C17.1046 5 18 5.89543 18 7C18 8.10457 17.1046 9 16 9C14.8954 9 14 8.10457 14 7ZM25.5 4C23.567 4 22 5.567 22 7.5C22 9.433 23.567 11 25.5 11C27.433 11 29 9.433 29 7.5C29 5.567 27.433 4 25.5 4ZM24 7.5C24 6.67157 24.6716 6 25.5 6C26.3284 6 27 6.67157 27 7.5C27 8.32843 26.3284 9 25.5 9C24.6716 9 24 8.32843 24 7.5ZM3 7.5C3 5.567 4.567 4 6.5 4C8.433 4 10 5.567 10 7.5C10 9.433 8.433 11 6.5 11C4.567 11 3 9.433 3 7.5ZM6.5 6C5.67157 6 5 6.67157 5 7.5C5 8.32843 5.67157 9 6.5 9C7.32843 9 8 8.32843 8 7.5C8 6.67157 7.32843 6 6.5 6ZM7 25C7.61001 25 8.17749 24.8179 8.65108 24.5052C8.78927 25.1835 9.01901 25.8285 9.32683 26.4267C8.63182 26.7928 7.84011 27 7 27C4.23858 27 2 24.7614 2 22V15.5C2 14.1193 3.11929 13 4.5 13H9.37731C8.92663 13.5622 8.62463 14.2488 8.53095 15H4.5C4.22386 15 4 15.2239 4 15.5V22C4 23.6569 5.34315 25 7 25ZM23.2102 14.0024C25.9521 14.0653 28.391 15.3543 30 17.3427V15.5C30 14.1193 28.8807 13 27.5 13H22.6227C22.8643 13.3015 23.0632 13.6387 23.2102 14.0024ZM19.5 13C20.367 13 21.1308 13.4413 21.5793 14.1115C20.618 14.2639 19.7073 14.5686 18.8728 15H12.5C12.2239 15 12 15.2239 12 15.5V23C12 24.8112 13.2038 26.3413 14.855 26.8337C15.2273 27.6232 15.7109 28.3498 16.2857 28.9933C16.191 28.9978 16.0958 29 16 29C12.6863 29 10 26.3137 10 23V15.5C10 14.1193 11.1193 13 12.5 13H19.5ZM23 15.5C27.1421 15.5 30.5 18.8579 30.5 23C30.5 27.1421 27.1421 30.5 23 30.5C18.8579 30.5 15.5 27.1421 15.5 23C15.5 18.8579 18.8579 15.5 23 15.5ZM25.7197 19.2197L23 21.9393L20.2803 19.2197C19.9874 18.9268 19.5126 18.9268 19.2197 19.2197C18.9268 19.5126 18.9268 19.9874 19.2197 20.2803L21.9393 23L19.2197 25.7197C18.9268 26.0126 18.9268 26.4874 19.2197 26.7803C19.5126 27.0732 19.9874 27.0732 20.2803 26.7803L23 24.0607L25.7197 26.7803C26.0126 27.0732 26.4874 27.0732 26.7803 26.7803C27.0732 26.4874 27.0732 26.0126 26.7803 25.7197L24.0607 23L26.7803 20.2803C27.0732 19.9874 27.0732 19.5126 26.7803 19.2197C26.4874 18.9268 26.0126 18.9268 25.7197 19.2197Z" fill="#212121"/>
</svg>

<svg xmlns="http://www.w3.org/2000/svg" width="32" height="32"><path d="M16 3a4 4 0 1 0 0 8 4 4 0 0 0 0-8Zm-2 4a2 2 0 1 1 4 0 2 2 0 0 1-4 0Zm11.5-3a3.5 3.5 0 1 0 0 7 3.5 3.5 0 0 0 0-7ZM24 7.5a1.5 1.5 0 1 1 3 0 1.5 1.5 0 0 1-3 0Zm-21 0a3.5 3.5 0 1 1 7 0 3.5 3.5 0 0 1-7 0ZM6.5 6a1.5 1.5 0 1 0 0 3 1.5 1.5 0 0 0 0-3ZM7 25c.61 0 1.177-.182 1.651-.495a7.45 7.45 0 0 0 .676 1.922A5 5 0 0 1 2 22v-6.5A2.5 2.5 0 0 1 4.5 13h4.877a3.981 3.981 0 0 0-.846 2H4.5a.5.5 0 0 0-.5.5V22a3 3 0 0 0 3 3Zm16.21-10.998a8.983 8.983 0 0 1 6.79 3.34V15.5a2.5 2.5 0 0 0-2.5-2.5h-4.877c.241.302.44.639.587 1.002ZM19.5 13c.867 0 1.63.441 2.08 1.111a8.936 8.936 0 0 0-2.707.889H12.5a.5.5 0 0 0-.5.5V23a4.002 4.002 0 0 0 2.855 3.834c.372.79.856 1.516 1.43 2.16A6 6 0 0 1 10 23v-7.501a2.5 2.5 0 0 1 2.501-2.5h7Zm3.5 2.5a7.5 7.5 0 1 1 0 15 7.5 7.5 0 0 1 0-15Zm2.72 3.72L23 21.94l-2.72-2.72a.75.75 0 1 0-1.06 1.06L21.94 23l-2.72 2.72a.75.75 0 1 0 1.06 1.06L23 24.06l2.72 2.72a.75.75 0 1 0 1.06-1.06L24.06 23l2.72-2.72a.75.75 0 1 0-1.06-1.06Z"/></svg>
